assets/svg/icon-ui-faq-q-alt-white.svg

<?xml version="1.0" encoding="UTF-8" standalone="no"?>
<svg width="32px" height="32px" viewBox="0 0 32 32" version="1.1" xmlns="http://www.w3.org/2000/svg" xmlns:xlink="http://www.w3.org/1999/xlink">
    <!-- Generator: Sketch 3.8.3 (29802) - http://www.bohemiancoding.com/sketch -->
    <title>white/icon-ui-faq-q-alt-white</title>
    <desc>Created with Sketch.</desc>
    <defs></defs>
    <g id="white" stroke="none" stroke-width="1" fill="none" fill-rule="evenodd">
        <g id="icons,-utility-white" transform="translate(-675.000000, -501.000000)" fill="#FFFFFF">
            <g id="white/icon-ui-faq-q-alt-white" transform="translate(675.000000, 501.000000)">
                <g id="icon-faq-q">
                    <g id="Page-1">
                        <path d="M16,32 C24.836556,32 32,24.836556 32,16 C32,7.163444 24.836556,0 16,0 C7.163444,0 0,7.163444 0,16 C0,24.836556 7.163444,32 16,32 L16,32 Z M22.6076389,22.4409723 L20.3185764,22.4409723 L19.3732639,21.4722223 C18.3680505,22.1180588 17.24827,22.4409723 16.0138889,22.4409723 C14.4149225,22.4409723 12.9956659,21.8993109 11.7560764,20.8159723 C10.4071113,19.6232579 9.73263889,18.0998356 9.73263889,16.2456597 C9.73263889,14.4279423 10.3706533,12.9123325 11.6467014,11.6987847 C12.8862909,10.5216955 14.349818,9.93315972 16.0373264,9.93315972 C17.568584,9.93315972 18.9409661,10.4487796 20.1545139,11.4800347 C21.6128545,12.7196243 22.3420139,14.3367956 22.3420139,16.3315972 C22.3420139,17.8941051 21.7664988,19.282112 20.6154513,20.4956597 L22.6076389,22.4409723 L22.6076389,22.4409723 Z M17.5998264,17.4487847 L19.3498264,19.1909723 C20.1206636,18.3888849 20.5060764,17.3967073 20.5060764,16.2144097 C20.5060764,14.9175283 20.0763932,13.8316016 19.2170139,12.9565972 C18.3576345,12.0815929 17.2899369,11.6440972 16.0138889,11.6440972 C14.7222157,11.6440972 13.6597264,12.0815929 12.8263889,12.9565972 C11.987843,13.8263932 11.5685764,14.9279447 11.5685764,16.2612847 C11.5685764,17.5633745 12.0008637,18.6284681 12.8654514,19.4565972 C13.7664976,20.3107681 14.7951331,20.7378472 15.9513889,20.7378472 C16.7378512,20.7378472 17.4487816,20.5581615 18.0842013,20.1987847 L15.2482639,17.4487847 L17.5998264,17.4487847 L17.5998264,17.4487847 Z" id="icon-faq-q"></path>
                    </g>
                </g>
            </g>
        </g>
    </g>
</svg>

<svg width="32" height="32" viewBox="0 0 32 32" xmlns="http://www.w3.org/2000/svg"><title>white/icon-ui-faq-q-alt-white</title><path d="M16 32c8.837 0 16-7.163 16-16S24.837 0 16 0 0 7.163 0 16s7.163 16 16 16zm6.608-9.559h-2.29l-.945-.969c-1.005.646-2.125.969-3.36.969-1.598 0-3.017-.542-4.257-1.625-1.349-1.193-2.023-2.716-2.023-4.57 0-1.818.638-3.334 1.914-4.547 1.24-1.177 2.703-1.766 4.39-1.766 1.532 0 2.904.516 4.118 1.547 1.458 1.24 2.187 2.857 2.187 4.852 0 1.562-.576 2.95-1.727 4.164l1.993 1.945zM17.6 17.449l1.75 1.742c.77-.802 1.156-1.794 1.156-2.977 0-1.296-.43-2.382-1.289-3.257-.86-.875-1.927-1.313-3.203-1.313-1.292 0-2.354.438-3.188 1.313-.838.87-1.257 1.97-1.257 3.304 0 1.302.432 2.367 1.296 3.196.901.854 1.93 1.28 3.086 1.28.787 0 1.498-.179 2.133-.538l-2.836-2.75H17.6z" fill="#FFF" fill-rule="evenodd"/></svg>
